X:94
T:Gander In The Pratie Hole, The
R:jig
S:https://thesession.org/tunes/401
M:6/8
L:1/8
Z:Jdharv
K:Dmajor
FAD FAD|GFG EFG|FAD FAF|GED {G} D2 E|
FAD FAD|GFG Efg|fed ecA|GED {G} D2 z:||
Add {e} ded|^cAB cAG|Add {e} ded|^cAB c2 B|
Add {e} ded|^cAB cde|fed ecA|GED {G} D2 z:||

